X: 508
T: Zao xikao
%%abc-version 2.0
%%abcx-abcm2ps-target-version 5.9.1 (29 Sep 2008)
%%abc-creator hum2abc beta
%%abcx-conversion-date 2013/10/02 07:52:30
%%abc-edited-by Helmut Schaffrath
%%humdrum-veritas 158772362
%%humdrum-veritas-data 3268268001
%%continueall 1
%%barnumbers 0
L: 1/8
M: 2/4
K: F
c2c2 [I:setbarnb 1]| 
f g f d | 
c4 | 
f g f d | 
c d A G | 
F4 | 
G Ac2- | 
c2f d | 
c d A G | 
F4 | 
A2A c | 
A G F D | 
C4 |]  



